icons/numix/32x32/mimetypes/text-x-readme.svg

<?xml version="1.0" encoding="UTF-8" standalone="no"?>
<svg
   xmlns:dc="http://purl.org/dc/elements/1.1/"
   xmlns:cc="http://creativecommons.org/ns#"
   xmlns:rdf="http://www.w3.org/1999/02/22-rdf-syntax-ns#"
   xmlns:svg="http://www.w3.org/2000/svg"
   xmlns="http://www.w3.org/2000/svg"
   xmlns:sodipodi="http://sodipodi.sourceforge.net/DTD/sodipodi-0.dtd"
   xmlns:inkscape="http://www.inkscape.org/namespaces/inkscape"
   width="32"
   height="32"
   viewBox="0 0 32 32"
   id="svg2"
   version="1.1"
   inkscape:version="0.48.5 r10040"
   sodipodi:docname="text-x-readme.svg">
  <metadata
     id="metadata22">
    <rdf:RDF>
      <cc:Work
         rdf:about="">
        <dc:format>image/svg+xml</dc:format>
        <dc:type
           rdf:resource="http://purl.org/dc/dcmitype/StillImage" />
      </cc:Work>
    </rdf:RDF>
  </metadata>
  <defs
     id="defs20" />
  <sodipodi:namedview
     pagecolor="#ffffff"
     bordercolor="#666666"
     borderopacity="1"
     objecttolerance="10"
     gridtolerance="10"
     guidetolerance="10"
     inkscape:pageopacity="0"
     inkscape:pageshadow="2"
     inkscape:window-width="1280"
     inkscape:window-height="970"
     id="namedview18"
     showgrid="true"
     inkscape:zoom="14.75"
     inkscape:cx="8.1907376"
     inkscape:cy="16.54147"
     inkscape:window-x="0"
     inkscape:window-y="0"
     inkscape:window-maximized="1"
     inkscape:current-layer="svg2">
    <inkscape:grid
       type="xygrid"
       id="grid3016" />
  </sodipodi:namedview>
  <path
     style="fill:#dcdcdc;fill-opacity:1"
     d="M 5.335888,2.976e-4 C 4.648414,3.126e-4 4,0.6767885 4,1.3940318 L 4,30.606268 C 4,31.282757 4.687474,32 5.335888,32 l 21.327332,0 c 0.648414,0 1.335888,-0.717243 1.335888,-1.393732 L 28,9.0000003 l -9,-9 z"
     id="path4-1"
     inkscape:connector-curvature="0"
     sodipodi:nodetypes="ssssssccs" />
  <path
     style="fill:#000000;fill-opacity:0.19599998"
     d="M 21,9.0000003 28,16 28,9.0000003 z"
     id="path6-4"
     inkscape:connector-curvature="0"
     sodipodi:nodetypes="cccc" />
  <path
     style="fill:#ffffff;fill-opacity:0.39200003"
     d="m 19.000306,2.976e-4 8.991594,8.9997027 -7.613262,0 c -0.672951,0 -1.378332,-0.7134896 -1.378332,-1.3864402 z"
     id="path8-6"
     inkscape:connector-curvature="0"
     sodipodi:nodetypes="ccssc" />
  <g
     style="fill:#888888"
     id="g10"
     transform="matrix(1.0497949,0,0,1.0501026,-0.79671876,0.79753835)">
    <path
       d="m 16,10.667969 c -3.683594,0 -6.667969,2.984375 -6.667969,6.664062 C 9.332031,21.015625 12.316406,24 16,24 c 3.683594,0 6.667969,-2.984375 6.667969,-6.667969 0,-3.679687 -2.984375,-6.664062 -6.667969,-6.664062 z M 16,12 c 2.945312,0 5.332031,2.386719 5.332031,5.332031 0,2.945313 -2.386719,5.335938 -5.332031,5.335938 -2.945312,0 -5.332031,-2.390625 -5.332031,-5.335938 C 10.667969,14.386719 13.054688,12 16,12 z"
       id="path12"
       inkscape:connector-curvature="0" />
    <path
       d="M 17.332031,14.667969 C 17.332031,15.402344 16.734375,16 16,16 c -0.738281,0 -1.332031,-0.597656 -1.332031,-1.332031 0,-0.738281 0.59375,-1.335938 1.332031,-1.335938 0.734375,0 1.332031,0.597657 1.332031,1.335938 z"
       id="path14"
       inkscape:connector-curvature="0" />
    <path
       d="m 15.332031,16.667969 1.335938,0 c 0.664062,0 0.664062,-0.0039 0.664062,0.664062 l 0,3.335938 c 0,0.664062 0.0039,0.664062 -0.664062,0.664062 l -1.335938,0 c -0.664062,0 -0.664062,0.0039 -0.664062,-0.664062 l 0,-3.335938 c 0,-0.664062 -0.0039,-0.664062 0.664062,-0.664062 z"
       id="path16"
       inkscape:connector-curvature="0" />
  </g>
</svg>

<svg width="32" xmlns="http://www.w3.org/2000/svg" height="32" viewBox="0 0 32 32" xmlns:xlink="http://www.w3.org/1999/xlink">
<path style="fill:#dcdcdc" d="M 5.332031 0.667969 C 4.648438 0.667969 4 1.3125 4 2 L 4 30 C 4 30.648438 4.6875 31.332031 5.332031 31.332031 L 26.667969 31.332031 C 27.3125 31.332031 28 30.648438 28 30 L 28 9.332031 L 19.332031 0.667969 Z "/>
<path style="fill:#000;fill-opacity:.196" d="M 19.332031 8 L 19.375 8.042969 L 19.480469 8 Z M 20.667969 9.332031 L 28 16.667969 L 28 9.332031 Z "/>
<path style="fill:#fff;fill-opacity:.392" d="M 19.332031 0.667969 L 28 9.332031 L 20.667969 9.332031 C 20.019531 9.332031 19.332031 8.648438 19.332031 8 Z "/>
<g style="fill:#888">
<path d="M 16 10.667969 C 12.316406 10.667969 9.332031 13.652344 9.332031 17.332031 C 9.332031 21.015625 12.316406 24 16 24 C 19.683594 24 22.667969 21.015625 22.667969 17.332031 C 22.667969 13.652344 19.683594 10.667969 16 10.667969 Z M 16 12 C 18.945312 12 21.332031 14.386719 21.332031 17.332031 C 21.332031 20.277344 18.945312 22.667969 16 22.667969 C 13.054688 22.667969 10.667969 20.277344 10.667969 17.332031 C 10.667969 14.386719 13.054688 12 16 12 Z "/>
<path d="M 17.332031 14.667969 C 17.332031 15.402344 16.734375 16 16 16 C 15.261719 16 14.667969 15.402344 14.667969 14.667969 C 14.667969 13.929688 15.261719 13.332031 16 13.332031 C 16.734375 13.332031 17.332031 13.929688 17.332031 14.667969 Z "/>
<path d="M 15.332031 16.667969 L 16.667969 16.667969 C 17.332031 16.667969 17.332031 16.664062 17.332031 17.332031 L 17.332031 20.667969 C 17.332031 21.332031 17.335938 21.332031 16.667969 21.332031 L 15.332031 21.332031 C 14.667969 21.332031 14.667969 21.335938 14.667969 20.667969 L 14.667969 17.332031 C 14.667969 16.667969 14.664062 16.667969 15.332031 16.667969 Z "/>
</g>
</svg>
